dist/svg/u1F48B.svg

<?xml version="1.0" encoding="UTF-8"?><svg id="Layer_1" xmlns="http://www.w3.org/2000/svg" viewBox="0 0 40 40"><path d="M35.91565,11.63904l-.31586-3.94934c-.09717-1.21436-1.14062-2.26996-2.3559-2.3833l-13.6889-1.27661c-3.66742-.34204-6.51599,2.30121-6.41119,5.94916l.03931,1.36981c.0307,1.0683-.76599,1.86505-1.83429,1.83435l-1.36987-.03937c-3.64795-.10474-6.2912,2.74384-5.94916,6.41125l1.27661,13.6889c.11334,1.21527,1.16895,2.25873,2.38336,2.35583l3.94934,.31586c14.50116,1.15979,25.43628-9.77533,24.27655-24.27655Zm-10.62311,3.65997c-.38074,1.43549-1.35852,4.25043-3.55084,6.44269-2.19226,2.19232-5.0072,3.1701-6.44269,3.55084-.47791,.12677-.84937-.24463-.7226-.7226,.38074-1.43549,1.35858-4.25043,3.55084-6.44269s5.0072-3.1701,6.44269-3.55084c.47797-.12677,.84937,.24463,.7226,.7226Z" style="fill:#ef4452;"/><rect width="40" height="40" style="fill:none;"/></svg>

<svg id="Layer_1" data-name="Layer 1" xmlns="http://www.w3.org/2000/svg" viewBox="0 0 40 40"><defs><style>.cls-1{fill:#ef4452;}.cls-2{fill:none;}</style></defs><path class="cls-1" d="M35.916,11.639,35.6,7.69a2.681,2.681,0,0,0-2.356-2.384L19.555,4.03a5.673,5.673,0,0,0-6.411,5.949l.039,1.37a1.734,1.734,0,0,1-1.834,1.834l-1.37-.039A5.673,5.673,0,0,0,4.03,19.555L5.306,33.244A2.681,2.681,0,0,0,7.69,35.6l3.949.316C26.14,37.075,37.075,26.14,35.916,11.639ZM25.293,15.3a14.662,14.662,0,0,1-3.551,6.443A14.662,14.662,0,0,1,15.3,25.293a.568.568,0,0,1-.723-.723,14.657,14.657,0,0,1,3.551-6.443,14.657,14.657,0,0,1,6.443-3.551A.568.568,0,0,1,25.293,15.3Z"/><rect class="cls-2" width="40" height="40"/></svg>
